X:154
T:So What
C:Emory Lester ("Cruisin the 8s")
N:TablEdited by Steve Keating
L:1/8
Q:1/4=208
M:4/4
K:F
|: zG A=B cd ec | dA z6 | zG A=B cd ec | d8 | zG A=B cd ec | dA z6 | zd e2 de de | 
dA z6 | zG A=B cd ec | dA z6 | zG A=B cd ec | dz z6 | zG A=B cd ec | dA z6 | zd e2 de de | 
dA z6 | z_A Bc _d_e fd | _eB z6 | z_A Bc _d_e fd | _e8 | z_A Bc _d_e fd | _eB z6 | 
z_e f2 ef ef | _eB z6 | zG A=B cd ec | dA z6 | zG A=B cd ec | dz z6 | zG A=B cd ec | 
dA A6 | zd e2 de de | dA z6 |1 "Dm7"zd cd (3edc (3dcd | (3edc (3dcd (3edc (3dc=B | 
(3c=BA (3BAG (3AGF (3GFE | (3FED (3EDC (3A,CD (3EDE | (3FEF (3GFG (3AGA (3=BAB | 
(3c=Bc (3dcd (3ede (3fef | (3gfg (3_agf (3gfe (3fed | (3edc (3dc=B (3cBA (3BAG | 
(3AGF (3GFE (3FED (3EDC | A,C DE DF zE | FG AG Ac de | fg ac' a=b z2 | =bc' gb fa zf | 
_a=a _ag fa gf | ec dc AF EG | FE DF (3EFE DE | CD CE FB _dB | "Ebm7"_eB e_g f_d ef | 
_g_a bc' _d'_e' z2 | _e'f' zf' bf (3_gb_d' | f'z/(3f' (3_d'bd' _g'z/(3g' (3d'bd' | 
(3f'_d'f' (3d'bd' (3_e'd'b d'b | _e'b _d'b f/_g/f _d_e | zB _dB _eB _AB | _G2 F/G/F _EG z2 | 
"Dm7"z2 G,A, DF EC | DE FG Ad ce | de fg _a=a z2 | ze (3dfa c'2 (3fac' | (3e'e'z zc' d'c' aA | 
e/f/e cA zd ce | dc Ac A_A GF | DF Ac =B/c/B AG | E8 | z8 :|2 zd e2 de de | dA z6 | 
zd e2 de de | dA z6 | z8 | z8 | 


